X:1
T:Afar from the East
T:Afar from the East
T:David Stiles Hakes
T:Franklin Edson Belden, 1882
T:Public Domain Courtesy of the Cyber Hymnal™
T:Public Domain Courtesy of the Cyber Hymnal™
C:David Stiles Hakes
Z:Public Domain
Z:Courtesy of the Cyber Hymnal™
%%score ( 1 2 ) ( 3 4 )
L:1/8
Q:1/4=78
M:2/4
K:G
V:1 treble 
V:2 treble 
V:3 bass 
V:4 bass 
V:1
 [DG] | [DG][B,D]/[B,D]/ [CE][Ec] | [DB][Gd] [Gd][GB] | [FA]>[Fd] [Fc][FA] | [DG]3 [DG] | %5
w: 1.~A-|far from the East the|wise men came, To|seek the in- fant|King; To|
w: 2.~Be-|yond where the might- y|ri- vers flow, In|Per- sian land they|were; They|
w: 3.~They|found Him in low- ly|man- ger laid, Tho’|he was roy- al,|fair; There|
 [DG][B,D]/[B,D]/ [CE][Ec] | [DB][Dd] [Dd][Ec] | [DB]>[DG] [DA]>[DF] | [DG]3 ([EG]/[FA]/) | %9
w: hon- or the Sav- ior|of man- kind, And|grate- ful off- erings|bring. A- *|
w: knew of the time He|should ap- pear, And|bring Him gifts of|myrrh. With *|
w: ne- ver was prince so|mean- ly clad, Yet|an- gels bright were|there. And *|
 [GB][GB] ([GB]/[FA]/) ([EG]/[^DF]/) | [EG][^DF] E[EG] | [EA][EA] ([^CA]/[EG]/) ([DF]/[CE]/) | %12
w: cross the plains * of *|Pal- es- tine, Di-|rect- ed by * the *|
w: joy they hail * the *|wel- come rays, Which|kind- ly guid- * ed *|
w: then a- broad * the *|tid- ings flew, O’er|land and o- * ver *|
 D3 D | [CE][Ec] [Ec][CE] | [B,D][DB] [DB][Gd] | [Fd]D [CA]>[CF] | [B,G]3 ||"^Refrain" [DB] | %18
w: star, They|came to bless and|wor- ship Him, Three|wise men from a-|far.||
w: them; And|lo! the star that|went be- fore Stood|o- ver Beth- le-|hem.|A-|
w: sea, And|all man- kind have|heard the news Sal-|va- tion, full and|free.||
 [DB][DB]/[DB]/ [Ec][Ec] | [DB][Gd] [Gd][GB] | [FA]>[FA] ([A^c]/[GB]/) ([FA]/[EG]/) | [DF]3 [DF] | %22
w: ||||
w: far in the East the|news is heard Of|Christ, a Sav- * ior, *|born; And|
w: ||||
 [DG][B,D] [CE][Ec] | [DB][Gd] [Gd][Gc] | [GB]>[DG] [DA]>[DG] | [DG]3 |] %26
w: ||||
w: o’er the world the|glo- ry breaks Of|glad re- demp- tion’s|morn.|
w: ||||
V:2
 x | x4 | x4 | x4 | x4 | x4 | x4 | x4 | x4 | x4 | x2 E x | x4 | D3 D | x4 | x4 | x D x2 | x3 || x | %18
 x4 | x4 | x4 | x4 | x4 | x4 | x4 | x3 |] %26
V:3
 [G,,B,] | [G,,B,][G,,G,]/[G,,G,]/ [C,G,][C,G,] | G,[G,B,] [G,B,][G,,G,D] | %3
 [D,D]>[D,A,] [D,A,][D,C] | [G,,B,]3 [G,,B,] | [G,,B,][G,,G,]/[G,,G,]/ [C,G,][C,G,] | %6
 G,[G,B,] [B,,G,][B,,G,] | [D,G,]>[D,B,] [D,C]>[D,A,] | [G,,B,]3 [E,B,] | %9
 [E,B,][E,B,] [B,,B,][B,,B,] | [B,,B,][B,,A,] [E,G,][E,B,] | [^C,A,][C,A,] [A,,A,] (A,/G,/) | %12
 [D,F,]3 [B,,G,] | [B,,G,][B,,G,] [B,,G,][B,,G,] | [G,,G,][G,,G,] G,[G,B,] | %15
 [D,A,][D,F,] [D,F,]>[D,A,] | [G,,G,]3 || G, | G,G,/G,/ [C,G,][C,G,] | G,[G,B,] [G,B,][G,D] | %20
 [A,D]>A, [A,,A,][A,,A,] | A,3 [A,,C] | [G,,B,][G,,G,] [C,G,][C,G,] | G,[G,B,] [B,,D][B,,E] | %24
 [D,D]>[D,B,] [D,C]>[D,B,] | [G,,B,]3 |] %26
V:4
 x | x4 | G, x3 | x4 | x4 | x4 | G, x3 | x4 | x4 | x4 | x4 | x3 A,, | x4 | x4 | x2 G, x | x4 | %16
 x3 || G, | G,G,/G,/ x2 | G, x3 | x3/2 A,/ x2 | (D,C, B,,) x | x4 | G, x3 | x4 | x3 |] %26

